X:116
T:Minor Swing
C:Django Reinhardt
N:Solos by Django Reinhardt , Stephane Grapelli, and Bryan Sutton Arranged for mandolin by Mike Stangeland 
L:1/8
Q:1/4=200
M:4/4
K:C
z8 |: "Am"A2 c2 e3f/e/ | "Dm"d2 fa z4 | "Am"A2 c2 e3f/e/ | "Dm"d2 fa4z | "Am"A2 c2 e3f/e/ | 
"Dm"d2 fa4z |1 [^f8c8E8A,8] | z8 :|2 [^f8c8E8A,8] |] z^F/E/ ^DE F^G AB | "Am"cC EB (3ABA zC | 
EA ce ^g2 a2 | "Dm"a2 e2 d4 | z2 df aa ^ga | "E"^gf df aa ga | ^gf df aa ga | 
"Am"gg f2 (3efe z2 | z4 ee gf | "Dm"zB BB B4 | zA B2 f/d/B/A/ F/D3/2 | "Am"(3CEA c4 z3/2B/ | 
cd/c/ Bd cB A^G | "E"FE DC B,A, ^G,B, | DF ^GB df ^de | "Am"cA E3/2c/ d7/2B/ | 
c3/2A/ E2 ^F4 | "Am"z4 (3E/F/E/^D E3/2c/ | zA E2 E4 | "Dm"D^C DF AB AF | 
DB, CD EF ^DE | "E"zE E2 E4 | z^D E^G Bd Bd | "Am"cA EC A,B, CE | Ac e2 a3/2^f/ e=f | 
"Dm"d7/1d | fd2F c3_B | "Am"B7/1^g | ae cA ab3 | "E"^ga z3f dB | a2 g2 ^g2 d'b | 
"Am"c'a ec fd B^G | AA A2 A4 | "Am"[e2E2] [a2A2] [b2B2] [c'c][c'c] | z8 | "Dm"[d2D2] [a2A2] [b2B2] [c'c][c'c] | 
z4 [^d4^D4] | "E"[e6E6] [^d'2_b2] | [e'4b4] ze/d/ cA | "Am"EC (3B,/C/B,/A, B,C EA | 
ce a2 a3/2(3^f (3e=fe | "Dm"d7/1d | fd2A cB A^G | "Am"BA EC FD B,^G, | (3A,CE (3Ace a3(3e/f/e/ | 
"E"d3c' ba ^gf | fd cB A^G eG | "Am"Ac (3efe df ^fb | a8 |: "Am"A2 c2 e2 f/e/E | 
A2 c2 ee zf/e/ | "Dm"d2 f2 a7/2A/ | d2 f2 aa a_b/a/ | "E"e2 ^g2 b3(3_b/a/g/ | 
e2 ^g2 bc' c'a | "Am"z8 |1 z8 :|2 z"Am"E ^DE F^F G^G |] A4 a2 e'2 | z[aeE] [a2e2E2] [a4e4E4] | 
"Dm"zb/a/ ^ga ba gb | a2 fd B4 | "E"z3F dc BA | (3^GAG FD B,4 | "Am"z2 (3^GBd f2 (3efe | 
cB A2 A4 | "Dm"z3a b2 c'd' | zd' z3c' ba | "Am"b2 a^g ba fe | dc Be z2 cA | "E"EA ce ab c'a | 
b2 ^fa ^g2 g=g | "Am"^fc' z2 ba ^gb | ae c2 A4 | "Am"ze' z2 e'4 | e'2 bc' e'2 ac' | 
"Dm"e'2 ac' e'a c'e' | f'^c' e'd' af d2 | "E"z2 (3Ad^f e'3d' | c'b a^g b3f | "Am"d2 (3B_BA ^G=B df | 
ec A2 c3A, | "Dm"CE A(3c2 (3e2g2 f2 | B7/1f | "Am"a3f dA FD | E8 | "E"z3e e^d d=d | 
d^c c=c cB BA | "Am"A^G GF FE ^DE | A,8 | "Am"zB, _B,=B, e2 Bd | c^G BA E4 | "Dm"z2 (3efe ^de fe | 
^f2 z4 =f2 | "E"B6 AA | ^GB d2 d4 | "Am"^GB d2 d4 | ^G,B, DF ^GB df | "Dm"a4 zB dc | 
Ac AE CE Ac | "Am"d3b bc' ab | ^gb af dc Be/f/ | "E"e3e cA E2 | z4 E4 | "Am"^DE FE DE EE | 
A2 EC A,A, CE | "Am"A3[cG^D] [c2G2D2] [c2G2D2] | [B2^F2D2] [A2E2C2] [c3G3^D3][AEC] | 
"Dm"[A2E2C2] [B2^F2D2] [c2G2^D2] [^c2^G2E2] | [d4A4F4] [g4d4E4] | "E"[g4d4E4] (3g^f=f (3e^d=d | 
(3^c=cB (3_BA^G (3=G^F=F (3E^D=D | "Am"(3^CEF ^G/B/d/f/ ^g2 bb | za ec A4 | "Dm"zc' ba ^gb af | 
df ^fz z2 =fe | (3"Am"Bcd cB ^cz z2 | cA3/2E2E7/2 | "E"z4 [^d2^D2] [e2E2] | [f2F2] [e2E2] [b2B2] [c'2c2] | 
"Am"[d'2d2] [^d'^d][e'e] z2 [^g^G][aA] | "Am"z^D EG A_B =Bd | 
cG AE4z | ^G,A, B,C DE FG | "Dm"EF (3GFE FE ^CD | ^CD EF DE DC | "E"B,2 G^G Be gf | 
fe fe zd cB | "Am"AB cA BA GE | GE ^D=D/^D/ =DC DC | "Dm"DA, ^CD4F | EF GA ^GA Bd | 
"Am"cc Bc de fd | ed ec' bg ag | "E"ef e^d ed ef | e4 c'3g | "Am"a2 ef ed cd | 
B3^d =dc AG | "Am"cA cA ae cB | A^g a2 ec BA | "Dm"dd dd f4 | 
z3(3f/e/f/ df bf | "E"b^g ed cB {_b}=b2 | ^ge dB ^GE DB, | "Am"C2 E2 A,2 C2 | 
z2 {^d}e2 {d}e2 {d}e2 | "Dm"ec ed z4 | dc Bd cB a2 | "Am"ec AE ^D=D CB, | A,2 c'2 c'b c'b | 
"E"a^g bf ed cB | {^c}d2 d=c AG EC | "Am"A,8 | z2 A2 c2 e2 | "Am"aa aa4z | 
zA ce ab c'd' | "Dm"b4 bf bf | ed f2 ed cB | "E"b^g/a/ ge dB (3dcB | B^G FD FE/F/ ED | 
"Am"CE ^GB ce ac' | e'6 ^d'b | (3"Dm"d'^c'=c' bf (3bc'b (3c'bc' | fe dc Ba z2 | 
"Am"ed cB AB ce | Ac ea z3^d | "E"dc AG cA G^F | E2 d^d =dc AG | {B}"Am"c4 {B}c4 | 
{B}c4 {B}c4 | "Am"A2 c2 e2 f/e/E | A2 c2 ee zf/e/ | "Dm"d2 f2 a7/2A/ | d2 f2 aa a_b/a/ | 
"E"e2 ^g2 b3(3_b/a/g/ | e2 ^g2 bc' c'a | "Am"ze ^de f^f g^g | [a8c8^F8A,8] | 


